X:1
T:Title
%%score { ( 1 3 6 ) | ( 2 4 5 ) }
L:1/8
M:3/4
K:Eb
V:1 treble nm="Grand Piano"
V:3 treble 
V:6 treble 
V:2 treble 
V:4 treble 
V:5 treble 
V:1
 z6[Q:1/4=106] | G2 z2 z2 | E2 z2 C2 | C4 A>B | A2 G2 F>E | F2 E2 D>C |[M:2/4] D4 |[M:1/4] G>A | %8
[M:3/4] G2 F2 z z/ F/ | E2 z2 C2 | C4 A>B | A2 G2 F>E | F2 E2 D>C |[M:2/4] D4 |[M:1/4] G>F | %15
[M:3/4] G2 C2 G>F | G2 C2 (3AGF | F4 F>=E | [DF]2 D2 F>=E | [DF]2 [B,D]2 .[DG]2 | E4 E>D | %21
 E2 C2 E>D | E2 C2 (3FED | D4 C>D | E2 F2 GA | G2 A2 =B>c |[M:4/4] d6- d>G | c2 z2 cBAG | F8 | %29
 B2 B>B BA .G2 | [B,E-]4 E4 | A2 A>A AG .F2 | [G,=B,D]8 | G2 G>G GFED | C6- C>C | E2 DD FF E2 | %36
 [EG]G F>G [FA]3- [FA]/[FA]/ | [FA]2 [EA]A AA D2 |[M:3/4] G>G B,>B, C2- |[M:2/4] C4 |] %40
V:2
 z2 z2 G>A | z2[K:treble] F2 z z/ F/ | z2 D2 =A,,>=B,, | G,4 z2 | F,6 | [C,F,A,]6 | %6
[M:2/4] [=B,,F,G,]4 |[M:1/4] z2 |[M:3/4] [C,G,]6 | z2 D2 =A,,>=B,, | G,4 z2 | F,6 | [C,F,A,]6 | %13
[M:2/4] [=B,,F,G,]4 |[M:1/4] [G,,F,]2 |[M:3/4] [C,E,C]2 [F,A,]2 [E,G,C]2 | %16
 [C,E,C]2 [E,G,]2 [F,A,C]2 | [G,=B,D]6 | G,2- [D,G,-B,]2 [C,G,=B,]2 | =B,,2 D,2 (3z[K:treble] FE | %20
 [C,G,C]6 | [E,A,]2- [A,,E,-A,]2 [C,E,C]2 | z2 z2 C2 | [D,G,=B,]6 | [E,G,C]6 | [=B,D]6 | %26
[M:4/4] [G,=B,G]8 | z2[K:treble] c>c[K:bass] E,2 C,2 | [F,A,B,]2 G,2 z2 z z/ F/ | %29
 [B,,F,]4 D,2 z F | E,2 F,2 G,4 | E,4- [C,E,-]2 E,-[E,E] | D,2 E,2 z2 z z/ E/ | D,8 | [C,E,G,]8 | %35
 C2 =B,B, DD [E,G,C]2 | z E D>E A,,2- [A,,D,]2 | [C,F,]2 z D [F,A,C]2 [G,=B,]2 | %38
[M:3/4] C>C G,>G, [C,E,G,]2- |[M:2/4] [C,E,G,]4 |] %40
V:3
 x6 | [G,-E]4 G,2 | [G,-C]4 G,->[G,=B,] | x6 | C6 | x6 |[M:2/4] x4 |[M:1/4] x2 |[M:3/4] E4 E2 | %9
 [G,-C]4 G,->[G,=B,] | x6 | C6 | x6 |[M:2/4] x4 |[M:1/4] =B,2 |[M:3/4] x6 | x6 | x6 | x6 | G,6 | %20
 x6 | x6 | x6 | x6 | x6 | x6 |[M:4/4] x8 | E8 | z4 C4 | D8 | G,2 A,2 z2 z z/ E/ | C8 | x8 | =B,8 | %34
 x8 | x8 | x8 | x8 |[M:3/4] x6 |[M:2/4] x4 |] %40
V:4
 x6 | z2[K:treble] z2 E2 | G,,4 z2 | [C,E,]4- [C,E,F,]2 | A,,4 B,,2 | x6 |[M:2/4] x4 |[M:1/4] x2 | %8
[M:3/4] x6 | G,,4 z2 | [C,E,]4- [C,E,F,]2 | A,,4 B,,2 | x6 |[M:2/4] x4 |[M:1/4] x2 |[M:3/4] x6 | %16
 x6 | x6 | =B,,2 z2 z2 | z2 z2 G,,2[K:treble] | x6 | C,2 z2 z2 | [G,,C,G,]4 (3:2:2[C,F,]2 A, | x6 | %24
 x6 | D,4 F,2 |[M:4/4] x8 | C,4[K:treble][K:bass] z4 | z4 A,4 | z4 z2 B,,2 | x8 | A,,4 z2 A,,2 | %32
 z4 F,4 | G,,4 =B,,2 G,,2 | x8 | [E,G,]4 [D,=B,]2 z2 | [C,G,]4 C,2 z2 | z2 [D,F,]2 z4 | %38
[M:3/4] [E,G,]2 [D,F,]2 z2 |[M:2/4] x4 |] %40
V:5
 x6 | C,6[K:treble] | x6 | x6 | x6 | x6 |[M:2/4] x4 |[M:1/4] x2 |[M:3/4] x6 | x6 | x6 | x6 | x6 | %13
[M:2/4] x4 |[M:1/4] x2 |[M:3/4] x6 | x6 | x6 | x6 | x14/3[K:treble] x4/3 | x6 | x6 | x6 | x6 | x6 | %25
 x6 |[M:4/4] x8 | x2[K:treble] x2[K:bass] x4 | x8 | x8 | x8 | x8 | x8 | x8 | x8 | x8 | x8 | x8 | %38
[M:3/4] x6 |[M:2/4] x4 |] %40
V:6
 x6 | x6 | x6 | x6 | x6 | x6 |[M:2/4] x4 |[M:1/4] x2 |[M:3/4] x6 | x6 | x6 | x6 | x6 |[M:2/4] x4 | %14
[M:1/4] x2 |[M:3/4] x6 | x6 | x6 | x6 | x6 | x6 | x6 | x6 | x6 | x6 | x6 |[M:4/4] x8 | x8 | %28
 z2 B,6 | x8 | z4 B,4 | x8 | x8 | x8 | x8 | x8 | x8 | x8 |[M:3/4] x6 |[M:2/4] x4 |] %40

